X:3516
T:Crabs in the Skillet
R:Jig
O:Ireland
M:6/8
B:O'Neill
B:Andrew Cronshaw?? record
K:Gm
G3 d2^F|G2A B2c|ded cBA|dcB AG^F|\
G3 d2^F|G2A B2d|
cAc f=ed|1 cAF F=EF :|2 cAF G3|:\
gag gf=e|fgf f=ed|cd=e fed|cAF G2d|
gag gf=e|fgf f=ed|cd=e fed\
|1 cAF F3:|2 cAF F=EF|:\
G2z A2z|B2z c2z|
ded cBA|dcB AG^F|\
G2z A2z|B2z d2z|cAc f=ed|1 cAF F=EF :|2 cAF G3||


